!!!OTL: 419d. Muehlrad.
!!!ODT: 1807
!!!ARE: Europa, Mitteleuropa, Deutschland, Brandenburg
!!!SCT: E0419C
!!!TXL: @@DE
!!!YEM: Copyright 1995, estate of Helmut Schaffrath.
**kern	**text
*ICvox	*
*M6/8	*
*k[f#]	*
*G:	*
!LO:TX:a:t=Mäßig.	!
!LO:TX:a:t=Aus dem Brandenburgiſchen um 1807.	!
{8d	Da
=1	=1
8.g	dro-
16b	-ben
8dd	auf
8.ddL	je-
16cc#J	.
8dd	-nem
=2	=2
4.b	Ber-
4a}	-ge
{8d	da
=3	=3
8.gL	ſteht
16aJ	.
8b/	ein
8.bL	ho-
16aJ	.
8g	-hes
=4	=4
[4.a	Haus,
8a]	.
8r}	.
{8dd	da
=5	=5
8.b	gu-
16cc	-i-
8dd	-ken
8.bL	al-
16ccJ	.
8dd	-le
=6	=6
(4ee	Mor-
16ggL	.
16eeJ)	.
4dd}	-gen
{8cc	drei
=7	=7
8.b	ſchö-
16cc	-ne
8b	Jung-
8a	-frau-
8g	-en
8a	her-
=8	=8
[4.g	-aus.
8g]	.
8r}	.
==	==
!!!AGN: Liebes - Lied, Abschied
!!!ONB: ESAC (Essen Associative Code) Database: ERK1
!!!AMT: compound duple
!!!AIN: vox
!!!EED: Helmut Schaffrath
!!!EEV: 1.0
!!!GTL: Liebeslieder [Alte (aus dem 13. bis 17. Jahrh.) mit ihrem jungen Nachwuchs]
!!!URL-scan: https://rosdok.uni-rostock.de/mcrviewer/recordIdentifier/rosdok_ppn745177662/iview2/phys_0239.iview2?x=-778.7160746633431&y=2235.9064781366615&scale=0.3980252647138593&rotation=0&layout=singlePageLayout
!!!ENC: Anna Maria Matuszewska
!!!EEV: 2024/09/12
*-	*-
